X:1
T:Title
%%score { ( 1 3 ) | ( 2 4 ) }
L:1/8
M:3/4
K:G
V:1 treble nm="Grand Piano"
V:3 treble 
V:2 treble 
V:4 treble 
V:1
 z2 z2[Q:1/4=100] B>_B | B3 D GB | [FB]2 [FA]2 [Fc]>[FB] | [Fc]3 [Fe] [Fd][Dc] |[M:2/4] [DB]4 | %5
[M:1/4] d>^c |[M:3/4] d3 G AB | [=FGd]2 [EGc]2 [DGB]>c | B3 G FA |[M:2/4] [G,B,DG]4 | %10
[M:1/4] [B,DG]>[B,DG] |[M:3/4] [EGc]3 [^DGc] Be | d4 B>B | B3 A B[G^c] |[M:2/4] [Fd]4 | %15
[M:1/4] d>c |[M:3/4] B3 G AB | [=Fd]2 z2 z2 | B3 G FA |[M:2/4] [B,DG]4 |] %20
V:2
 z2 z2 [G,DG]>[G,^CG] | [G,DG]3 [G,B,] [G,B,D][G,DG] | [D,D]2 [D,C]2 [D,A,]>[D,^G,] | %3
 [D,A,]3 [D,C] [D,B,][D,A,] |[M:2/4] [G,,G,]4 |[M:1/4][K:treble] [G,B,G]>[G,_B,G] | %6
[M:3/4] [G,B,G]3 [G,B,] [G,CG][G,DG] | C,2 C,2 D,>[D,A,D] | [D,G,D]3 [D,B,D] [D,A,D][F,CD] | %9
[M:2/4] G,,4 |[M:1/4] G,>G, |[M:3/4] C,3 C,[K:treble] [G,DG][G,CG] | [G,B,G]4 [G,DG]>[G,DG] | %13
 [A,^CG]3 [A,CG] [A,CG][K:bass][E,A,] |[M:2/4] A,2 z2 |[M:1/4][K:treble] [G,B,G]>[G,EG] | %16
[M:3/4] [G,DG]3 [G,B,] [G,CG][G,DG] | z2 E2 D,>[D,A,D] | [D,G,D]3 [D,B,D] [D,A,D][F,CD] | %19
[M:2/4] [G,,G,]4 |] %20
V:3
 x6 | x6 | x6 | x6 |[M:2/4] x4 |[M:1/4] x2 |[M:3/4] x6 | x6 | x6 |[M:2/4] x4 |[M:1/4] x2 | %11
[M:3/4] x6 | x6 | x6 |[M:2/4] z2 C2 |[M:1/4] x2 |[M:3/4] x6 | G2- [Gc]2 [DGB]>c | x6 |[M:2/4] x4 |] %20
V:4
 x6 | x6 | x6 | x6 |[M:2/4] x4 |[M:1/4][K:treble] x2 |[M:3/4] x6 | x6 | x6 |[M:2/4] x4 | %10
[M:1/4] x2 |[M:3/4] x4[K:treble] x2 | x6 | x5[K:bass] x |[M:2/4] D,4 |[M:1/4][K:treble] x2 | %16
[M:3/4] x6 | C,4 z2 | x6 |[M:2/4] x4 |] %20

